Yosa-Max/actions/22x22/archive-remove.svg

<?xml version="1.0" encoding="UTF-8"?>
<svg id="svg4" version="1.1" viewBox="0 0 22 22" xmlns="http://www.w3.org/2000/svg">
 <defs id="defs8">
  <style id="current-color-scheme" type="text/css">.ColorScheme-Text {
        color:#4d4d4d;
      }</style>
  <style id="current-color-scheme-5" type="text/css">.ColorScheme-Text {
        color:#4d4d4d;
      }</style>
 </defs>
 <path id="path831" d="m17 3v4h-2v-2h-10v12h6.0000002v2h-8.0000002v-16z" style="fill:#4d4d4d"/>
 <g id="g864" transform="rotate(45,-12.847597,44.149335)">
  <rect id="rect858" x="-15.525424" y="-1.5677961" width="2" height="8" style="fill:#c51818"/>
  <rect id="rect860" transform="rotate(90)" x="1.4322039" y="10.525424" width="2" height="8" style="fill:#c51818"/>
 </g>
</svg>

<?xml version="1.0" encoding="UTF-8" standalone="no"?>
<svg
   xmlns:dc="http://purl.org/dc/elements/1.1/"
   xmlns:cc="http://creativecommons.org/ns#"
   xmlns:rdf="http://www.w3.org/1999/02/22-rdf-syntax-ns#"
   xmlns:svg="http://www.w3.org/2000/svg"
   xmlns="http://www.w3.org/2000/svg"
   height="22"
   width="22"
   version="1.1"
   id="svg4">
  <metadata
     id="metadata10">
    <rdf:RDF>
      <cc:Work
         rdf:about="">
        <dc:format>image/svg+xml</dc:format>
        <dc:type
           rdf:resource="http://purl.org/dc/dcmitype/StillImage" />
        <dc:title></dc:title>
      </cc:Work>
    </rdf:RDF>
  </metadata>
  <defs
     id="defs8">
    <style
       type="text/css"
       id="current-color-scheme">
      .ColorScheme-Text {
        color:#4d4d4d;
      }
      </style>
    <style
       id="current-color-scheme-5"
       type="text/css">
      .ColorScheme-Text {
        color:#4d4d4d;
      }
      </style>
  </defs>
  <path
     style="opacity:1;fill:#4d4d4d;fill-opacity:1;stroke:none;stroke-width:0.28062433;stroke-miterlimit:4;stroke-dasharray:none;stroke-opacity:1"
     d="M 17,3 V 7 H 15 V 5 H 4.9999998 V 17 H 11 v 2 H 2.9999998 V 3 Z"
     id="path831" />
  <g
     id="g864"
     transform="rotate(45,-12.847597,44.149335)">
    <rect
       y="-1.5677961"
       x="-15.525424"
       height="8"
       width="2"
       id="rect858"
       style="opacity:1;vector-effect:none;fill:#da4453;fill-opacity:1;stroke:none;stroke-width:0.49000004;stroke-linecap:butt;stroke-linejoin:miter;stroke-miterlimit:4;stroke-dasharray:none;stroke-dashoffset:0;stroke-opacity:1" />
    <rect
       transform="rotate(90)"
       style="opacity:1;vector-effect:none;fill:#da4453;fill-opacity:1;stroke:none;stroke-width:0.49000004;stroke-linecap:butt;stroke-linejoin:miter;stroke-miterlimit:4;stroke-dasharray:none;stroke-dashoffset:0;stroke-opacity:1"
       id="rect860"
       width="2"
       height="8"
       x="1.4322039"
       y="10.525424" />
  </g>
</svg>
